dist/svgs/unicons/line/trophy.svg

<svg xmlns="http://www.w3.org/2000/svg" data-name="Layer 1" viewBox="0 0 24 24"><path d="M21 4h-3V3a1 1 0 00-1-1H7a1 1 0 00-1 1v1H3a1 1 0 00-1 1v3a4 4 0 004 4h1.54A6 6 0 0011 13.91V16h-1a3 3 0 00-3 3v2a1 1 0 001 1h8a1 1 0 001-1v-2a3 3 0 00-3-3h-1v-2.09A6 6 0 0016.46 12H18a4 4 0 004-4V5a1 1 0 00-1-1zM6 10a2 2 0 01-2-2V6h2v2a6 6 0 00.35 2zm8 8a1 1 0 011 1v1H9v-1a1 1 0 011-1zm2-10a4 4 0 01-8 0V4h8zm4 0a2 2 0 01-2 2h-.35A6 6 0 0018 8V6h2z"/></svg>

<svg xmlns="http://www.w3.org/2000/svg" data-name="Layer 1" viewBox="0 0 24 24"><path d="M21,4H18V3a1,1,0,0,0-1-1H7A1,1,0,0,0,6,3V4H3A1,1,0,0,0,2,5V8a4,4,0,0,0,4,4H7.54A6,6,0,0,0,11,13.91V16H10a3,3,0,0,0-3,3v2a1,1,0,0,0,1,1h8a1,1,0,0,0,1-1V19a3,3,0,0,0-3-3H13V13.91A6,6,0,0,0,16.46,12H18a4,4,0,0,0,4-4V5A1,1,0,0,0,21,4ZM6,10A2,2,0,0,1,4,8V6H6V8a6,6,0,0,0,.35,2Zm8,8a1,1,0,0,1,1,1v1H9V19a1,1,0,0,1,1-1ZM16,8A4,4,0,0,1,8,8V4h8Zm4,0a2,2,0,0,1-2,2h-.35A6,6,0,0,0,18,8V6h2Z"/></svg>
